X: 20263
M: 3/4
L: 1/8
K: G
d2dBge | d2dBdB | c2cAcA | B2BGGB |\
d2dBge | d2dBdB | c2cA[GF][FD] | G2z2 :|
|: G>B |\
d2gfed | d>BG2F>G | A>FD2D>C | B,>G,B,>DG>B |\
d2gfed | d>BG2F>G | A>FD2D>F | G2z2 :|


